X: 15095
T: Getingen
R: waltz
M: 3/4
K: Aminor
f/|:"A"e3/2d/ ^c/d/e/^f/ "A/C#"^ga|bc' "Dm"a2"C"g2|"Bb"fe/d/ "A"^c/d/e/f/ "Gm"ga/g/|fe/d/ "Bb"fe "A"e3/2f/|
"A"e3/2d/ ^c/d/e/^f/ "A/C#"^ga|bc' "Dm"a2"C"g2|"Bb"fe/d/ "A"^c/d/e/f/ "Bb"ga/g/|1 fe/d/ "Gm"fe "A"e3/2f/:|2 fe/d/ "Gm"fe "A"e3/2d/||
K: A
|:"A"c3/2c/ dd ce|"E"e3/2d/ B/d/B/G/ "E/G#"GA|"A"cc/c/ dd cc|"D"d/c/"D/F#"d/f/ "E"e3"E/G#'"d|
"A"c3/2c/ dd ce|"E"e3/2d/ B/d/B/G/ "E/G#"GA|"A"cc/c/ dd cc|
"D"d/c/"D/F#"d/f/"E"e2"A"a2|"E/G#"ge/g/ "D"fe/d/ cB/A/|"E"G/A/B/c/ "E/G#"BA "A"A2:|

